Obsidian-SemiLight/actions/22s/system-suspend.svg

<svg viewBox="0 0 22 22" xmlns="http://www.w3.org/2000/svg"><path d="m11 3c-4.432 0-8 3.568-8 8s3.568 8 8 8 8-3.568 8-8-3.568-8-8-8zm0 1c3.537216 0 6.438059 2.6006421 6.921875 6h-13.84375c.4838163-3.3993579 3.384659-6 6.921875-6zm-6.921875 8h13.84375c-.483816 3.399358-3.384659 6-6.921875 6s-6.4380587-2.600642-6.921875-6z" fill="#4d4d4d"/></svg>

<svg xmlns="http://www.w3.org/2000/svg" viewBox="0 0 22 22">
  <defs id="defs3051">
    <style type="text/css" id="current-color-scheme">
      .ColorScheme-Text {
        color:#4d4d4d;
      }
      </style>
  </defs>
 <path 
     style="fill:currentColor;fill-opacity:1;stroke:none" d="M 11 3 C 6.568 3 3 6.568 3 11 C 3 15.432 6.568 19 11 19 C 15.432 19 19 15.432 19 11 C 19 6.568 15.432 3 11 3 z M 11 4 C 14.537216 4 17.438059 6.6006421 17.921875 10 L 4.078125 10 C 4.5619413 6.6006421 7.462784 4 11 4 z M 4.078125 12 L 17.921875 12 C 17.438059 15.399358 14.537216 18 11 18 C 7.462784 18 4.5619413 15.399358 4.078125 12 z " id="rect4148" 
     class="ColorScheme-Text"
     />
</svg>
